X: 173
T: Dance all night
B: canberra pickers and fiddlers
B: old time tunes update
B: tunes
M:2/4
L:1/8
Q: 1/4=100
K:G
V:1 
gg/a/ gd/c/|B/G/B/G/ [GB]B|A/G/F/E/ D/F/A/c/|B/[G/B/][G/B/][G/B/] [GB]>(f|
g/)a/g/g/ g/e/d/c/|B/G/B/[G/B/] [GB]B/G/|A/B/A/F/ D/F/A/c/|B/G/[G/B/][G/B/] [G2B2]:|
gg/a/ g/e/d/e/|g/f/g/a/ b>(e|f)f/g/ a/f/a/g/|f/e/f/g/ a/f/d/f/|
gg/a/ g/e/d/e/|g/f/g/a/ b(b|d')d' e<f|g>a g||
|:G/E/|D[B,/D/]D/ D/B,/D/G/|[C/E/]E/E/E/ [CE](A|A/)[A/B/][A/A/]F/ D/F/A/c/|
B/G/[G/B/][G/B/] [GB]G/E/|D[B,/D/]D/ D/B,/D/G/|E/[CE]C/ E(A|A/)[A/B/][A/A/]F/ D/F/A/c/|B/[GB]G/ [GB}:||
% abcbook-tune_id 67a7d9ecf2f0e27cb4d2bc5f
% abcbook-tune_composer_id 
% abcbook-link-0 https://www.youtube.com/watch?v=I_PCTZwnQnI
% abcbook-link-title-0 &quot;Dance All Night&quot;- Old-Time Band, Laurel Bloomery Fiddler Convention 8/29/10
% abcbook-link-start-at-0 60
% abcbook-link-end-at-0 189
% abcbook-boost 0
% abcbook-difficulty 0
% abcbook-tags old time tunes
% abcbook-tablature 
% abcbook-transpose 
% abcbook-tuning GDAD
% abcbook-lastupdated 1739160637547
% abcbook-src-url 
% abcbook-soundfonts 
% abcbook-repeats 1


